X: 57
T: AIRTHREY CASTLE
C: Tom Anderson
R: march, reel
B: Haand me doon da fiddle, 1979
Z: 2012 John Chambers <jc:trillian.mit.edu>
N: Endings adjusted to get correct measure lengths.
M: C
L: 1/8
K: D
(fe) |\
vd2AG kF2A<d | kG2B<d kF2A<d | fdfa gfed | g<Bed kc2fe |
d2AG kF2A<d | kG2B<d kF2A<d | fAgf eGed |1 d4- d2 :|2 d4 d2fg ||
abag fgfe | defd A2ef | gagf efed | c<aB<g A2fg |
abag fgfe | defd A2ef | gBed cBGe | d4- d2fg ||
abag fgfe | defd A2ef | gagf efed | c<aB<g | A2fe |
d2AG kF2A<d | kG2B<d kF2A<d | fAgf "Rall"eGfe | d4 d2 |]
%%begintext align
I made up dis t\"un was moarnin at 5.00 a.m. whin I waakened up
wi da notes rinnin thro me haed.  Airthrey Castle wis da place
whaur we hed da Summer School run be Stirling University.
%%endtext

%%newpage
%%sep 2 1 500
%%sep 1 1 500

